images/icons/kit.svg

<svg fill="none" height="24" viewBox="0 0 24 24" width="24" xmlns="http://www.w3.org/2000/svg" xmlns:xlink="http://www.w3.org/1999/xlink"><clipPath id="a"><path d="m0 0h24v24h-24z"/></clipPath><g clip-path="url(#a)"><path clip-rule="evenodd" d="m1.39183.545731c-.00342.001409-.00684.002831-.01025.004266-.18819.079107-.35941.195704-.503893.343127-.144481.147426-.259381.322776-.338134.516046-.078752.19327-.119812.40065-.120831.6103v19.95463l.000002-19.95463c.001019-.20965.042079-.41703.120831-.6103.078753-.19327.193653-.36862.338134-.516046.144481-.147423.315701-.26402.503891-.343127.00341-.001435.00683-.002857.01025-.004266zm9.66277 9.313579v.01105l9.0906-9.277309c.3719-.376999.8724-.58824559 1.3937-.58824559.5211 0 1.0214.21107259 1.3933.58778259.1847.186521.3314.409212.4316.655012.1002.24588.1519.50993.1519.77666 0 .26674-.0517.53079-.1519.77666-.1001.24558-.2474.46877-.4318.65518l-8.3773 8.5454 8.3788 8.5439.001.001c.1843.1863.3308.4088.4309.6542.1002.2459.1518.5099.1518.7767 0 .2667-.0516.5308-.1518.7766-.1001.2455-.2465.4678-.4308.6542-.3709.3791-.8719.5919-1.3941.5919-.5226 0-1.0242-.2133-1.3952-.593l-8.3898-8.5551-8.38801 8.5533c-.37176.3772-.87292.5875-1.39425.5851-.25708.0017-.512-.0487-.75022-.1485-.239167-.1002-.456803-.2481-.640423-.4353-.183619-.1871-.329606-.4099-.429582-.6554-.0999765-.2455-.15197383-.509-.15300829-.7753l-.00000671-.0017.00000861-19.95682c.00129554-.26643.05347419-.52997.15355239-.77558.100079-.245599.246095-.468443.429701-.655789.183606-.187345.401202-.335517.640348-.436046.23842-.1002265.49361-.15113511.75105-.14984093.52049-.0020779 1.02062.20864393 1.39092.58611093.37086.378029.5812.892415.58486 1.430275l.00001.00303v15.09226z" fill="#fff" fill-rule="evenodd"/></g></svg>

<svg width="24" height="24" viewBox="0 0 24 24" fill="none" xmlns="http://www.w3.org/2000/svg">
<g clip-path="url(#clip0_1432_8676)">
<path fill-rule="evenodd" clip-rule="evenodd" d="M1.39183 0.545731C1.38841 0.54714 1.38499 0.548562 1.38158 0.549997C1.19339 0.629104 1.02217 0.745701 0.877687 0.893124C0.733206 1.04055 0.618306 1.2159 0.539553 1.40917C0.460801 1.60244 0.419741 1.80982 0.418722 2.01947V21.9741L0.418724 2.01947C0.419743 1.80982 0.460803 1.60244 0.539555 1.40917C0.618308 1.2159 0.733208 1.04055 0.877689 0.893124C1.02217 0.745701 1.19339 0.629104 1.38158 0.549997C1.38499 0.548562 1.38841 0.54714 1.39183 0.545731ZM11.0546 9.85931V9.87036L20.1452 0.593051C20.5171 0.216052 21.0176 0.00480541 21.5389 0.00480541C22.06 0.00480541 22.5603 0.215878 22.9322 0.592588C23.1169 0.779109 23.2636 1.0018 23.3638 1.2476C23.464 1.49348 23.5157 1.75753 23.5157 2.02426C23.5157 2.291 23.464 2.55505 23.3638 2.80092C23.2637 3.0465 23.1164 3.26969 22.932 3.4561L14.5547 12.0015L22.9335 20.5454L22.9345 20.5464C23.1188 20.7327 23.2653 20.9552 23.3654 21.2006C23.4656 21.4465 23.5172 21.7105 23.5172 21.9773C23.5172 22.244 23.4656 22.5081 23.3654 22.7539C23.2653 22.9994 23.1189 23.2217 22.9346 23.4081C22.5637 23.7872 22.0627 24 21.5405 24C21.0179 24 20.5163 23.7867 20.1453 23.407L11.7555 14.8519L3.36749 23.4052C2.99573 23.7824 2.49457 23.9927 1.97324 23.9903C1.71616 23.992 1.46124 23.9416 1.22302 23.8418C0.983853 23.7416 0.766217 23.5937 0.582597 23.4065C0.398978 23.2194 0.252991 22.9966 0.153015 22.7511C0.0530385 22.5056 0.00104117 22.2421 6.71418e-06 21.9758L0 21.9741L8.61112e-06 2.01728C0.00130415 1.75085 0.0534828 1.48731 0.153561 1.2417C0.25364 0.996101 0.399656 0.773257 0.583262 0.585911C0.766868 0.398566 0.984464 0.250394 1.22361 0.149865C1.46203 0.0496385 1.71722 -0.00127011 1.97466 2.40688e-05C2.49515 -0.00205383 2.99528 0.208668 3.36558 0.586135C3.73644 0.964164 3.94678 1.47855 3.95044 2.01641L3.95045 2.01944V17.1117L11.0546 9.85931Z" fill="white"/>
</g>
<defs>
<clipPath id="clip0_1432_8676">
<rect width="24" height="24" fill="white"/>
</clipPath>
</defs>
</svg>
